X: 1134
T: The Left Handed Tushkar
M: 4/4
L: 1/8
R: reel
K: G Major
|: DF |
GFGB ADD/D/D | GDGB dGBd | cBce d<gfg | eA^ce d2 DF |
GFGB ADD/D/D | GDGB dGBd | cBce defd | g2 G2 G2 :|
|: Bc |
dgfg dGBd | ce^de Aece | dgfg dGBd |
[1 eA^ce d2 B=c | dgfg dGBd | ce^de Aece | dgfe defd | g2 G2 G2 :|
[2 eA^ce d2 DF | GFGB ADD/D/D | GDGB dGBd | cBce defd | g2 G2 G2 |]
